X: 1
T: String Quartet in G Major opus 54 no 1 mvt 2
C: Franz Joseph Haydn
%%abc-version 2.0
%%abcx-abcm2ps-target-version 5.9.1 (29 Sep 2008)
%%abc-creator hum2abc beta
%%abcx-conversion-date 2021/02/14 14:38:11
%%abc-copyright Copyright (c) 1994, 2000 Center for Computer Assisted Research in the Humanities
%%abc-edited-by Frances Bennion
%%abcx-initial-encoding-date 1997/04/15
%%gracespace 0 6 6
%%humdrum-veritas 3356220788
%%humdrum-veritas-data 1357758678
%%linebreak <none>
%%barnumbers 0
L: 1/8
M: 6/8
N: Derived from op54n1-02.krn
Q: "Allegretto"
%%staves [1 2 3 4]
V: 1
V: 2
V: 3 clef=alto
V: 4 clef=bass
K: C
[V:1]C2z4 [I:setbarnb2]|
[V:2]C2z4 |
[V:3]CCC CCC |
[V:4]C,2z4 |
[V:1]Gcc cBc |
[V:2]GGG GGG |
[V:3]EEE EEE |
[V:4]CCC CCC |
[V:1]d>ed dz2 |
[V:2]GGG GGG |
[V:3]FFF FFF |
[V:4]CCC CCC |
[V:1]^c/d/e/d/f/e/ dz2 |
[V:2]GGG GGG |
[V:3]FFF FFF |
[V:4]CCC CCC |
[V:1]Gdd dcd |
[V:2]GGG GGG |
[V:3]FFF FFF |
[V:4]B,B,B, B,B,B, |
[V:1]e>fe ez2 |
[V:2]GGG GGG |
[V:3]EEE EEE |
[V:4]CCC CCC |
[V:1]^d/e/f/e/a/g/ gz2 |
[V:2]GGG GGG |
[V:3]EEE EEE |
[V:4]CCC CCC |
[V:1]b/c'/d'/c'/e'/c'/ gz2 |
[V:2]GGG GGG |
[V:3]EEE EEE |
[V:4]CCC CCC |
[V:1]gc'c' c'bc' |
[V:2]Gcc cBc |
[V:3]EGG GGG |
[V:4]E,E,E, E,E,E, |
[V:1]_b3 a2g |
[V:2]_B3 A2^c |
[V:3]C4- CG |
[V:4]F,F,F, F,F,E, |
[V:1]g^f=f edc |
[V:2]d2B cAA |
[V:3]A2D GAD |
[V:4]D,2G, C,F,^F, |
[V:1]Bc^c dz2 |
[V:2]GA^A BBB |
[V:3]D2z2 GG |
[V:4]G,2z4 |
[V:1]^c/d/f/e/g/f/ aaa |
[V:2]BBB BBB |
[V:3]GGG GGG |
[V:4]FFF FFF |
[V:1]^c/d/f/e/g/f/ a3 |
[V:2]BBB BBB |
[V:3]GGG GGG |
[V:4]FFF FFF |
[V:1]^c/d/f/e/g/f/ _b/a/g/f/e/d/ |
[V:2]BBB BBB |
[V:3]GGG GGG |
[V:4]FFF FFF |
[V:1]^c/d/f/e/g/f/ a3 |
[V:2]BBB BBB |
[V:3]GGG GGG |
[V:4]FFF FFF |
[V:1]ga/b/c'/d'/ e'/f'/g'/a'/b'/c''/ |
[V:2]c6- |
[V:3]G6 |
[V:4]E2z E,3 |
[V:1]c''2>a'2 f'd' |
[V:2]c2>c2 AF |
[V:3]AAA AAA |
[V:4]F,F,F, F,F,F, |
[V:1]c'2>d'2 c'd' |
[V:2]E2>F2 EF |
[V:3]GGG B,B,B, |
[V:4]G,G,G, G,G,G, |
[V:1]c'>ge' c'z2 |
[V:2]EEE Ez2 |
[V:3]CCC C2z |
[V:4]C,C,C, C,2z |
[V:1]A,2z4 |
[V:2]A,A,A, A,A,A, |
[V:3]A,A,A, A,A,A, |
[V:4]A,,A,,A,, A,,A,,A,, |
[V:1]E4 cA |
[V:2]DCB, C3 |
[V:3]B,CD C3 |
[V:4]^G,,A,,B,, A,,3 |
[V:1]E2>>e2 B/c/^G/A/ |
[V:2]DCB, C3 |
[V:3]B,CD C3 |
[V:4]^G,,A,,B,, A,,3 |
[V:1]D4 BG |
[V:2]CB,A, B,2D |
[V:3]A,B,C B,3 |
[V:4]^F,,G,,A,, G,,3 |
[V:1]Eec BAG |
[V:2]E6 |
[V:3]C4- C^C |
[V:4]C,4- C,^C, |
[V:1]^FG^G A2z |
[V:2]DE^E ^FCC |
[V:3]D2z ^F,F,F, |
[V:4]D,4 D,D, |
[V:1]^G/A/c/B/d/c/ eee |
[V:2]CCC CCC |
[V:3]^F,F,F, F,F,F, |
[V:4]D,D,D, D,D,D, |
[V:1]^G/A/c/B/d/c/ e3 |
[V:2]CCC CCC |
[V:3]^F,F,F, F,F,F, |
[V:4]D,D,D, D,D,D, |
[V:1]^G/A/_B/=B/c/^c/ d/^d/e/=d/=c/B/ |
[V:2]CCC CCC |
[V:3]^F,F,F, F,F,F, |
[V:4]D,D,D, D,D,D, |
[V:1]^G/A/c/B/d/c/ e3 |
[V:2]CCC CCC |
[V:3]^F,F,F, F,F,F, |
[V:4]D,D,D, D,D,D, |
[V:1]^c/d/g/^f/b/a/ g/f/=f/e/_e/d/ |
[V:2]D6 |
[V:3]G,6- |
[V:4]B,,6 |
[V:1]^d/e/^f/g/d/e/ B/c/^G/A/c/A/ |
[V:2]G,2z4 |
[V:3]G,2z4 |
[V:4]C,2z4 |
[V:1]G3 A3 |
[V:2]B,DG ^FFF |
[V:3]DB,B, CCC |
[V:4]D,D,D, D,D,D, |
[V:1]G2z4 |
[V:2]GG,G, G,G,G, |
[V:3]B,2z4 |
[V:4]G,2z4 |
[V:1]z6 |
[V:2]G,G,G, G,G,G, |
[V:3]^D,6 |
[V:4]z3 B,,3 |
[V:1]z6 |
[V:2]G,G,G, ^G,G,G, |
[V:3]E,6- |
[V:4]C,6- |
[V:1]GGG GGG |
[V:2]A,3 _B,3 |
[V:3]E,6 |
[V:4]C,3 ^C,3 |
[V:1]FFF FGA |
[V:2]DDD _EEE |
[V:3]_B,B,B, CCC |
[V:4]F,F,F, F,F,F, |
[V:1]_B2z4 |
[V:2]D_B,B, B,B,B, |
[V:3]_B,2z4 |
[V:4]_B,,2z4 |
[V:1]z6 |
[V:2]_B,B,B, B,B,B, |
[V:3]^F,6 |
[V:4]z3 D,3 |
[V:1]z6 |
[V:2]_B,B,B, =B,B,B, |
[V:3]G,6- |
[V:4]_E,6- |
[V:1]_BBB BBB |
[V:2]C3 _D3 |
[V:3]G,6 |
[V:4]E,3 E,3 |
[V:1]_AAA A_Bc |
[V:2]FFF _GGG |
[V:3]_DDD _EEE |
[V:4]_A,A,A, A,A,A, |
[V:1]_d2z4 |
[V:2]F_DD DDD |
[V:3]_D2z4 |
[V:4]_D,2z4 |
[V:1]GGG _AAA |
[V:2]_EEE EEE |
[V:3]_DDD CCC |
[V:4]z6 |
[V:1]AAA _BBB |
[V:2]^FFF GGG |
[V:3]_EEE =EEE |
[V:4]CCC ^CCC |
[V:1][DB][dD][dD] [Dd][Bg][gB] |
[V:2]G[BG][BG] [GB][BG][BG] |
[V:3]D[GB,][GB,] [GB,][GB,][GB,] |
[V:4][DD,][D,B,][B,D,] [B,D,][D,B,][B,D,] |
[V:1][gB]bb bd'd' |
[V:2][BG][gB][gB] [gB][gB][gB] |
[V:3][GB,][GB,][GB,] [GB,][GB,][GB,] |
[V:4][B,D,][D,,B,,][B,,D,,] [B,,D,,][B,,D,,][D,,B,,] |
[V:1]d'^c'/d'/=c'/b/ a/g/^f/g/b/a/ |
[V:2][g2B2]z4 |
[V:3][G2B,2]z4 |
[V:4][D,,2B,,2]z4 |
[V:1]g/^f/e/d/c/B/ A/G/^F/E/D/^C/ |
[V:2]z6 |
[V:3]z6 |
[V:4]z6 |
[V:1]D3 a3 |
[V:2]BBB ccc |
[V:3]GGG ^FFF |
[V:4]D,D,D, D,D,D, |
[V:1]g2^f =fe_e |
[V:2]B4 cc |
[V:3]G2z DE^F |
[V:4]G,,G,,G,, G,,G,,G,, |
[V:1]d2^c =cA^F |
[V:2]BDE ^F2A |
[V:3]GB,_B, A,2C |
[V:4]G,,G,,G,, G,,G,,G,, |
[V:1]G2B Gz2 |
[V:2]GDD D2z |
[V:3]B,B,B, B,2z |
[V:4]G,,G,,G,, G,,2z |
[V:1]EEE EEE |
[V:2]EEE EEE |
[V:3]E,E,E, E,E,E, |
[V:4]E,,E,,E,, E,,E,,E,, |
[V:1]E4 cA |
[V:2]DCB, C3 |
[V:3]B,CD C3 |
[V:4]^G,,A,,B,, A,,2z |
[V:1]E2>>e2 B/c/^G/A/ |
[V:2]DCB, C3 |
[V:3]B,CD C3 |
[V:4]^G,,A,,B,, A,,2z |
[V:1]D4 _BG |
[V:2]C_B,A, B,3 |
[V:3]A,_B,C B,3 |
[V:4]^F,,G,,A,, G,,2z |
[V:1]d2>>_b2 ^f/g/a/g/ |
[V:2]c_BA G3 |
[V:3]^F,G,A, _B,3 |
[V:4]D,,6 |
[V:1]d4 ff |
[V:2]cBA ^G2z |
[V:3]^F,G,A, B,3 |
[V:4]D,6 |
[V:1]zee zgg |
[V:2]zAA z_BB |
[V:3]A,3 ^C3 |
[V:4]^C,3 E,3 |
[V:1]z^gg zaa |
[V:2]zBB zcc |
[V:3]D3 _E3 |
[V:4]F,3 ^F,3 |
[V:1]g4 d'b |
[V:2]cde f3- |
[V:3]EDC B,3 |
[V:4]G,6 |
[V:1]g4 e'c' |
[V:2]feB c3- |
[V:3]DEF E3 |
[V:4]B,CD C2z |
[V:1]g4 f'd' |
[V:2]cde f3 |
[V:3]GFE D3 |
[V:4]EDC G,2z |
[V:1]zf'd' zf'd' |
[V:2]zd'b zd'b |
[V:3][D2B,2]z [D2B,2]z |
[V:4]G,2z G,2z |
[V:1]f'>e'd'/c'/ b/a/g/f/e/d/ |
[V:2]d'>c'b/a/ g/f/e/d/c/B/ |
[V:3][D2B,2]z4 |
[V:4][G,,2G,2]z4 |
[V:1]cBA G^F=F |
[V:2]AGF E^D=D |
[V:3]z6 |
[V:4]z6 |
[V:1]E2z4 |
[V:2]C2z4 |
[V:3]CCC CCC |
[V:4]C,2z4 |
[V:1]Gcc cBc |
[V:2]GGG GGG |
[V:3]EEE EEE |
[V:4]CCC CCC |
[V:1]d>ed dz2 |
[V:2]GGG GGG |
[V:3]FFF FFF |
[V:4]CCC CCC |
[V:1]^c/d/e/d/f/e/ dz2 |
[V:2]GGG GGG |
[V:3]FFF FFF |
[V:4]CCC CCC |
[V:1]Gdd dcd |
[V:2]GGG GGG |
[V:3]FFF FFF |
[V:4]B,B,B, B,B,B, |
[V:1]e>fe ez2 |
[V:2]GGG GGG |
[V:3]EEE EEE |
[V:4]CCC CCC |
[V:1]^d/e/f/e/a/g/ gz2 |
[V:2]GGG GGG |
[V:3]EEE EEE |
[V:4]CCC CCC |
[V:1]b/c'/d'/c'/e'/c'/ gz2 |
[V:2]GGG GGG |
[V:3]EEE EEE |
[V:4]CCC CCC |
[V:1]gc'c' c'bc' |
[V:2]Gcc cBc |
[V:3]EGG GGG |
[V:4]E,E,E, E,E,E, |
[V:1]_b3 a2g |
[V:2]_B3 A2^c |
[V:3]C3 C2G |
[V:4]F,F,F, F,F,E, |
[V:1]g^f=f edc |
[V:2]d2B cAA |
[V:3]A2D GAD |
[V:4]D,2G, C,F,^F, |
[V:1]Bc^c dz2 |
[V:2]GA^A BBB |
[V:3]D2z2 GG |
[V:4]G,2z4 |
[V:1]^c/d/f/e/g/f/ aaa |
[V:2]BBB BBB |
[V:3]GGG GGG |
[V:4]FFF FFF |
[V:1]^c/d/f/e/g/f/ az2 |
[V:2]BBB BBB |
[V:3]GGG GGG |
[V:4]FFF FFF |
[V:1]^c/d/f/e/g/f/ _b/a/g/f/e/d/ |
[V:2]BBB BBB |
[V:3]GGG GGG |
[V:4]FFF FFF |
[V:1]^c/d/f/e/g/f/ a3 |
[V:2]BBB BBB |
[V:3]GGG GGG |
[V:4]FFF FFF |
[V:1]ga/b/c'/d'/ e'/f'/g'/a'/b'/c''/ |
[V:2]c6- |
[V:3]G6 |
[V:4]E2z E,3 |
[V:1]c''2>a'2 f'd' |
[V:2]c2>c2 AF |
[V:3]AAA AAA |
[V:4]F,F,F, F,F,F, |
[V:1]c'2>d'2 c'd' |
[V:2]E2>F2 EF |
[V:3]GGG B,B,B, |
[V:4]G,G,G, G,G,G, |
[V:1]c'2z4 |
[V:2]ECC CCC |
[V:3]C2z4 |
[V:4]C,2z4 |
[V:1]z6 |
[V:2]CCC CCC |
[V:3]^G,6 |
[V:4]z3 E,3 |
[V:1]z6 |
[V:2]CCC ^CCC |
[V:3]A,6- |
[V:4]F,6- |
[V:1]ccc ccc |
[V:2]D3 _E3 |
[V:3]A,6 |
[V:4]F,3 ^F,3 |
[V:1]_BBB Bcd |
[V:2]GGG _AAA |
[V:3]_EEE FFF |
[V:4]_B,B,B, B,B,B, |
[V:1]_e2z4 |
[V:2]G_EE EEE |
[V:3]_E2z4 |
[V:4]_E,2z4 |
[V:1]z6 |
[V:2]_EEE EEE |
[V:3]B,6 |
[V:4]z3 G,3 |
[V:1]z6 |
[V:2]_EEE =EEE |
[V:3]C6- |
[V:4]_A,6- |
[V:1]_eee eee |
[V:2]F3 _G3 |
[V:3]C6 |
[V:4]A,3 A,3 |
[V:1]_ddd d_ef |
[V:2]_BBB _ccc |
[V:3]_GGG _AAA |
[V:4]_DDD DDD |
[V:1]_g2z4 |
[V:2]_B_GG GGG |
[V:3]_G2z4 |
[V:4]_G,2z4 |
[V:1]ccc _ddd |
[V:2]_AAA AAA |
[V:3]_GGG FFF |
[V:4]z6 |
[V:1]ddd _eee |
[V:2]BBB ccc |
[V:3]_AAA =AAA |
[V:4]FFF ^FFF |
[V:1]egg gc'c' |
[V:2]c[ec][ec] [ec][ec][ec] |
[V:3]G[EC][CE] [EC][EC][CE] |
[V:4]G[G,,E,][G,,E,] [E,G,,][E,G,,][G,,E,] |
[V:1]c'e'e' e'g'g' |
[V:2][ec]c'c' c'e'e' |
[V:3][EC][EC][CE] [EC][CE][EC] |
[V:4][E,G,,][E,G,,][E,G,,] [E,G,,][E,G,,][E,G,,] |
[V:1]g'>f'e'/d'/ c'/b/a/g/f/e/ |
[V:2]e'>d'c'/b/ a/g/f/e/d/c/ |
[V:3][E2C2]z4 |
[V:4][G,,2E,2]z4 |
[V:1]c'/b/a/g/f/e/ d/c/B/A/G/F/ |
[V:2]a/g/f/e/d/c/ B/A/G/F/E/D/ |
[V:3]z6 |
[V:4]z6 |
[V:1]E3 _E3 |
[V:2]C6- |
[V:3]z4 A,A, |
[V:4]zA,,A,, z^F,,F,, |
[V:1]D6 |
[V:2]C3 B,3 |
[V:3]G,G,G, F,F,F, |
[V:4]G,,G,,G,, G,,G,,G,, |
[V:1]C3 ^C/D/F/D/A/F/ |
[V:2]C3 B,3 |
[V:3]E,3 F,2D, |
[V:4]C,C,C, C,C,C, |
[V:1]EEE ^C/D/E/D/F/D/ |
[V:2]C3 B,3 |
[V:3]G,G,G, F,F,F, |
[V:4]C,C,C, C,C,C, |
[V:1]Cz2 ^c/d/f/d/a/f/ |
[V:2]C3 B,3 |
[V:3]E,3 F,2D, |
[V:4]C,,C,,C,, C,,C,,C,, |
[V:1]e/g/f/e/d/c/ B/A/G/F/E/D/ |
[V:2]C2>F2 DB, |
[V:3]G,2E, D,F,F, |
[V:4]C,,C,,C,, C,,C,,C,, |
[V:1]CzE CCC |
[V:2]CzG, CCC |
[V:3]E,zG, E,E,E, |
[V:4]C,,zC,, C,,C,,C,, |
[V:1]C2z4 |]
[V:2]C2z4 |]
[V:3]E,2z4 |]
[V:4]C,,2z4 |]

